web/ui/src/components/theme/tabs/svgs/flowchart.svg

<svg height="16" viewBox="0 0 16 16" width="16" xmlns="http://www.w3.org/2000/svg"><g fill="none"><path d="m0 0h16v16h-16z" fill="#000" opacity="0"/><path d="m2.74999997 1c.793 0 1.465.50882759 1.68 1.20689655h6.82000003c1.7605706-.00200452 3.202673 1.34988776 3.2525291 3.04906854s-1.3106646 3.1277321-3.0685291 3.22196594l-.184.00482759h-1.073c-.22073371.71612785-.90240222 1.20725221-1.67625475 1.20769775-.77385252.00044553-1.45612719-.48989355-1.67774528-1.20576671l-2.073-.00193104c-1.21425813-.00215741-2.21124457.92632453-2.25282108 2.09802628-.04157652 1.1717017.88725719 2.1638876 2.09882108 2.2419737l.154.0048276h6.82000003c.2225683-.7163244.905427-1.2068839 1.68-1.2068965.9664983 0 1.75.7564843 1.75 1.6896551s-.7835017 1.6896552-1.75 1.6896552c-.774573 0-1.4574317-.4905721-1.68-1.2068966h-6.82000003c-1.76057064.0020046-3.20267301-1.3498877-3.2525291-3.0490685-.04985609-1.69918077 1.31066459-3.12773209 3.0685291-3.22196593l.184-.00482759h2.073c.22061829-.71681375.90299931-1.20835306 1.6775-1.20835306.7745007 0 1.45688172.49153931 1.67750003 1.20835306h1.072c1.2142581.00215741 2.2112446-.92632453 2.2528211-2.09802623s-.8872572-2.16388766-2.0988211-2.24197377l-.154-.00482759h-6.82000003c-.22256828.71632443-.90542702 1.20688387-1.68 1.20689655-.9664983-.00000001-1.74999997-.75648439-1.74999997-1.68965517 0-.93317077.78350167-1.68965517 1.74999997-1.68965517zm10.50000003 11.5862069c-.4142136 0-.75.3242076-.75.7241379 0 .3999304.3357864.724138.75.724138.4142135 0 .75-.3242076.75-.724138 0-.3999303-.3357865-.7241379-.75-.7241379zm-4.75000003-5.31034483c-.25869141.0001034-.49906602.12891834-.636.34082759l-.028.04634482c-.08017237.1465875-.10559869.31536566-.072.47793104l.025.0897931.028.06758621.05.08882758.062.08206897-.041-.05117241c.14451301.19724248.38139073.31190442.6315424.30570151s.48062125-.13245347.6144576-.33659807l.03-.05117241.02-.03765517.027-.06758621c.06053635-.17333013.05089029-.36235842-.027-.52910345l-.02-.03862069-.028-.04634482-.025-.03668966c-.14072491-.1908342-.36837084-.30413793-.611-.30413793zm-5.75-5.31034483c-.41421356 0-.75.3242076-.75.72413793 0 .39993034.33578644.72413793.75.72413793.41421357 0 .75-.32420759.75-.72413793 0-.39993033-.33578643-.72413793-.75-.72413793z" fill="#595959"/></g></svg>

<?xml version="1.0" encoding="UTF-8"?>
<svg width="16px" height="16px" viewBox="0 0 16 16" version="1.1" xmlns="http://www.w3.org/2000/svg" xmlns:xlink="http://www.w3.org/1999/xlink">
    <title>flowchart</title>
    <g id="页面-1" stroke="none" stroke-width="1" fill="none" fill-rule="evenodd">
        <g id="系统设计规范" transform="translate(-724.000000, -5387.000000)" fill-rule="nonzero">
            <g id="flowchart" transform="translate(724.000000, 5387.000000)">
                <rect id="矩形" fill="#000000" opacity="0" x="0" y="0" width="16" height="16"></rect>
                <path d="M2.74999997,1 C3.54299997,1 4.21499997,1.50882759 4.42999997,2.20689655 L11.25,2.20689655 C13.0105706,2.20489203 14.452673,3.55678431 14.5025291,5.25596509 C14.5523852,6.95514587 13.1918645,8.38369719 11.434,8.47793103 L11.25,8.48275862 L10.177,8.48275862 C9.95626629,9.19888647 9.27459778,9.69001083 8.50074525,9.69045637 C7.72689273,9.6909019 7.04461806,9.20056282 6.82299997,8.48468966 L4.74999997,8.48275862 C3.53574184,8.48060121 2.5387554,9.40908315 2.49717889,10.5807849 C2.45560237,11.7524866 3.38443608,12.7446725 4.59599997,12.8227586 L4.74999997,12.8275862 L11.57,12.8275862 C11.7925683,12.1112618 12.475427,11.6207023 13.25,11.6206897 C14.2164983,11.6206897 15,12.377174 15,13.3103448 C15,14.2435156 14.2164983,15 13.25,15 C12.475427,15 11.7925683,14.5094279 11.57,13.7931034 L4.74999997,13.7931034 C2.98942933,13.795108 1.54732696,12.4432157 1.49747087,10.7440349 C1.44761478,9.04485413 2.80813546,7.61630281 4.56599997,7.52206897 L4.74999997,7.51724138 L6.82299997,7.51724138 C7.04361826,6.80042763 7.72599928,6.30888832 8.50049997,6.30888832 C9.27500067,6.30888832 9.95738169,6.80042763 10.178,7.51724138 L11.25,7.51724138 C12.4642581,7.51939879 13.4612446,6.59091685 13.5028211,5.41921515 C13.5443976,4.24751345 12.6155639,3.25532749 11.404,3.17724138 L11.25,3.17241379 L4.42999997,3.17241379 C4.20743169,3.88873822 3.52457295,4.37929766 2.74999997,4.37931034 C1.78350167,4.37931033 1,3.62282595 1,2.68965517 C1,1.7564844 1.78350167,1 2.74999997,1 Z M13.25,12.5862069 C12.8357864,12.5862069 12.5,12.9104145 12.5,13.3103448 C12.5,13.7102752 12.8357864,14.0344828 13.25,14.0344828 C13.6642135,14.0344828 14,13.7102752 14,13.3103448 C14,12.9104145 13.6642135,12.5862069 13.25,12.5862069 L13.25,12.5862069 Z M8.49999997,7.27586207 C8.24130856,7.27596547 8.00093395,7.40478041 7.86399997,7.61668966 L7.83599997,7.66303448 C7.7558276,7.80962198 7.73040128,7.97840014 7.76399997,8.14096552 L7.78899997,8.23075862 L7.81699997,8.29834483 L7.86699997,8.38717241 L7.92899997,8.46924138 L7.88799997,8.41806897 C8.03251298,8.61531145 8.2693907,8.72997339 8.51954237,8.72377048 C8.76969404,8.71756757 9.00016362,8.59131701 9.13399997,8.38717241 L9.16399997,8.336 L9.18399997,8.29834483 L9.21099997,8.23075862 C9.27153632,8.05742849 9.26189026,7.8684002 9.18399997,7.70165517 L9.16399997,7.66303448 L9.13599997,7.61668966 L9.11099997,7.58 C8.97027506,7.3891658 8.74262913,7.27586207 8.49999997,7.27586207 Z M2.74999997,1.96551724 C2.33578641,1.96551724 1.99999997,2.28972484 1.99999997,2.68965517 C1.99999997,3.08958551 2.33578641,3.4137931 2.74999997,3.4137931 C3.16421354,3.4137931 3.49999997,3.08958551 3.49999997,2.68965517 C3.49999997,2.28972484 3.16421354,1.96551724 2.74999997,1.96551724 Z" id="形状" fill="#595959"></path>
            </g>
        </g>
    </g>
</svg>
